src/static/logos/grails.svg

<?xml version="1.0" encoding="UTF-8" standalone="no"?>
<svg width="256px" height="175px" viewBox="0 0 256 175" version="1.1" xmlns="http://www.w3.org/2000/svg" xmlns:xlink="http://www.w3.org/1999/xlink" preserveAspectRatio="xMidYMid">
    <g>
        <path d="M137.78774,173.905895 C143.814237,173.045018 150.701611,171.323264 154.145478,169.60151 C157.588986,167.879398 160.171616,165.296767 160.171616,163.575013 C160.171616,163.575013 159.310739,161.853259 158.449862,160.131147 C156.728109,157.548516 155.006355,154.104649 150.701611,144.634645 C148.979858,140.329901 145.084372,129.05306 143.814237,123.972522 C142.49851,116.380794 142.378246,108.296521 143.814237,100.727769 C145.06355,96.3006076 146.780637,92.021353 149.840735,88.6747748 C153.27419,84.1327338 157.302146,79.6531584 162.754606,77.4830163 C179.729461,70.7255994 199.774107,55.960017 210.105348,39.6022791 C213.548855,33.5757819 215.191989,30.9931512 216.447045,27.5494642 C219.552736,19.0298344 222.294402,9.97906736 222.157983,0.86091997 L222.157983,0 L127.456858,0 L31.8944977,0 L31.8944977,1.72182917 C31.7530525,24.2814707 45.0887463,44.6153254 61.1657479,59.4035246 C69.7752348,67.1517756 80.1061165,73.1782728 92.1591109,77.4830163 C96.4634954,79.2047701 98.1856082,80.0656469 101.629116,83.5091545 C105.933859,88.6747748 109.377367,94.7012721 111.09948,101.588646 C112.142009,111.53899 111.361907,122.054397 108.51649,131.720773 L106.794736,136.886394 C105.933859,140.329901 103.35087,145.495522 99.0464851,154.104649 C94.7417416,162.714136 94.7417416,163.575013 94.7417416,164.43589 C96.4634954,169.60151 106.794736,173.045018 122.291238,174.766772 C125.735105,174.766772 130.900366,174.766772 137.78774,173.905895 L137.78774,173.905895 Z M65.4704914,144.634645 C71.4969886,143.773768 76.6626089,142.052014 78.3843627,139.469024 L78.3843627,138.608147 L77.5234858,136.025517 C71.4969886,124.833399 68.053122,115.363394 68.053122,105.89339 C68.053122,100.727769 68.9143579,98.1451386 70.6361117,93.8403952 C73.2187424,89.5356517 74.0796193,88.14633 78.3843627,86.4245762 C80.1061165,85.5439544 82.1606613,85.2115224 83.0215382,84.6830775 C85.2717368,84.0178545 87.8543675,82.6482776 87.8543675,82.6482776 C87.8543675,82.6482776 86.3088817,82.3158456 84.567024,81.4549687 C79.4017627,79.7332149 77.5234858,78.3438932 73.2187424,75.7609035 C59.4439941,68.0126525 50.8348662,60.2644015 42.2257383,49.0726429 C39.6427487,44.7678995 38.3065586,42.8662877 37.060118,41.131251 L36.1992411,39.6022791 C35.3383642,38.7414022 0.901493625,38.7414022 0.0406167348,39.6022791 C-0.5431138,51.6552736 5.23352091,62.2740715 12.9541291,71.456519 C21.9739505,82.1830164 29.311867,85.2312673 36.1992411,86.9530211 C42.2257383,88.6747748 43.0866152,89.5356517 45.6692459,92.9795183 C47.3913587,97.2839027 48.2522356,99.8668924 48.2522356,105.032154 C49.1131125,112.780764 46.5301228,120.529015 41.3648614,131.720773 C39.6427487,135.16464 37.9209949,138.608147 37.9209949,138.608147 C37.9209949,139.469024 39.6427487,141.191137 41.3648614,142.052014 C45.6692459,144.634645 57.7222404,146.356398 65.4704914,144.634645 L65.4704914,144.634645 Z M205.800604,144.634645 C212.687979,143.773768 216.992722,142.052014 217.853599,139.469024 C217.853599,138.608147 217.853599,137.747271 215.270609,132.58165 C209.854408,121.889617 206.116882,109.18181 209.244112,97.2839027 C211.031562,92.4675873 213.329867,87.4487971 218.714476,86.6123321 C227.323604,84.0297014 234.210978,80.0656469 242.820106,71.456519 C247.985726,66.2908987 252.791271,57.5762254 254.140744,52.5161505 C255.222405,48.4598335 256.583007,43.6094133 255.733977,39.6022791 C254.8731,38.7414022 219.575353,38.7414022 218.714476,39.6022791 C218.714476,39.6022791 217.853599,40.463156 216.992722,41.3240329 C216.131486,43.9070226 212.687979,49.0726429 210.105348,51.6552736 C206.661481,55.960017 196.3306,66.2908987 192.886733,68.8735294 C186.537138,75.3782118 174.351673,79.7612167 167.920226,82.6482776 C168.781103,83.5091545 173.085488,86.0921442 176.529354,86.9530211 C183.416728,89.5356517 183.416728,89.5356517 185.999359,93.8403952 C187.721113,98.1451386 188.582349,100.727769 188.582349,105.89339 C189.05838,117.842275 182.965827,128.908743 178.251108,138.608147 C184.370586,145.499112 197.223427,145.323562 205.800604,144.634645 L205.800604,144.634645 Z" fill="#7AB852"></path>
    </g>
</svg>

<svg width="256" height="175" xmlns="http://www.w3.org/2000/svg" preserveAspectRatio="xMidYMid"><path d="M137.788 173.906c6.026-.861 12.914-2.583 16.357-4.304 3.444-1.723 6.027-4.305 6.027-6.027l-1.722-3.444c-1.722-2.582-3.444-6.026-7.748-15.496-1.722-4.305-5.618-15.582-6.888-20.662-1.315-7.592-1.436-15.676 0-23.245 1.25-4.427 2.967-8.707 6.027-12.053 3.433-4.542 7.461-9.022 12.914-11.192 16.974-6.757 37.02-21.523 47.35-37.88 3.444-6.027 5.087-8.61 6.342-12.054 3.106-8.52 5.847-17.57 5.711-26.688V0H31.894v1.722c-.14 22.56 13.195 42.893 29.272 57.682 8.61 7.748 18.94 13.774 30.993 18.079 4.304 1.722 6.027 2.583 9.47 6.026 4.305 5.166 7.748 11.192 9.47 18.08 1.043 9.95.263 20.465-2.583 30.132l-1.721 5.165c-.861 3.444-3.444 8.61-7.749 17.219-4.304 8.61-4.304 9.47-4.304 10.33 1.721 5.167 12.053 8.61 27.55 10.332 3.443 0 8.608 0 15.496-.861zM65.47 144.635c6.027-.861 11.193-2.583 12.914-5.166v-.86l-.86-2.583c-6.027-11.193-9.47-20.663-9.47-30.133 0-5.165.86-7.748 2.582-12.053 2.583-4.304 3.444-5.694 7.748-7.415 1.722-.881 3.777-1.213 4.638-1.742 2.25-.665 4.832-2.035 4.832-2.035s-1.545-.332-3.287-1.193c-5.165-1.722-7.044-3.111-11.348-5.694-13.775-7.748-22.384-15.497-30.993-26.688-2.583-4.305-3.92-6.207-5.166-7.942l-.86-1.529c-.862-.86-35.299-.86-36.16 0-.583 12.053 5.194 22.672 12.914 31.855C21.974 82.183 29.312 85.23 36.2 86.953c6.027 1.722 6.888 2.583 9.47 6.027 1.722 4.304 2.583 6.887 2.583 12.052.861 7.749-1.722 15.497-6.887 26.689l-3.444 6.887c0 .861 1.722 2.583 3.444 3.444 4.304 2.583 16.357 4.304 24.105 2.583zm140.33 0c6.888-.861 11.193-2.583 12.054-5.166 0-.86 0-1.722-2.583-6.887-5.417-10.692-9.154-23.4-6.027-35.298 1.788-4.816 4.086-9.835 9.47-10.672 8.61-2.582 15.497-6.546 24.106-15.155 5.166-5.166 9.971-13.88 11.32-18.94 1.082-4.057 2.443-8.908 1.594-12.915-.86-.86-36.159-.86-37.02 0l-1.721 1.722c-.862 2.583-4.305 7.749-6.888 10.331-3.444 4.305-13.774 14.636-17.218 17.219-6.35 6.504-18.535 10.887-24.967 13.774.861.861 5.165 3.444 8.61 4.305 6.887 2.583 6.887 2.583 9.47 6.887 1.721 4.305 2.582 6.888 2.582 12.053.476 11.95-5.616 23.016-10.33 32.715 6.119 6.891 18.971 6.716 27.549 6.027z" fill="#7AB852"/></svg>
